assets/images/card/erga.svg

<svg width="152" height="104" viewBox="0 0 152 104" fill="none" xmlns="http://www.w3.org/2000/svg">
<rect width="152" height="104" fill="#F6F6F6"/>
<path fill-rule="evenodd" clip-rule="evenodd" d="M37.2733 21.1249H42.2046H87.565C105.212 21.1249 119.843 34.4432 122.044 51.5609H103.378C101.503 45.2285 95.5937 40.5712 88.6654 40.5712H37.8031H33.157L29 21.1249H37.2733Z" fill="#0000BD"/>
<path d="M116.623 20.961C117.357 20.2665 118.294 19.8171 119.313 19.8171C120.332 19.8171 121.269 20.2665 122.003 20.961C122.736 21.7372 123.144 22.5951 123.144 23.739C123.144 24.7604 122.736 25.7 122.003 26.3945C121.269 27.1299 120.332 27.5384 119.313 27.5384C118.294 27.5384 117.357 27.1299 116.623 26.3945C115.89 25.7 115.482 24.7604 115.564 23.739C115.523 22.5951 115.93 21.778 116.623 20.961ZM119.354 19C118.131 19 116.99 19.4902 116.093 20.3482C115.197 21.2878 114.667 22.3909 114.667 23.739C114.667 24.9646 115.156 26.0677 116.093 26.9665C116.99 27.9061 118.131 28.3146 119.354 28.3146C120.658 28.3146 121.758 27.9061 122.655 26.9665C123.552 26.0677 124 25.0055 124 23.739C124 22.3909 123.552 21.3287 122.655 20.3482C121.758 19.4902 120.617 19 119.354 19Z" fill="#0000BD"/>
<path d="M118.457 23.3305H119.109C119.517 23.3305 119.802 23.3305 119.884 23.2896C120.006 23.2488 120.087 23.2079 120.128 23.0854C120.169 23.0037 120.21 22.8811 120.21 22.7586C120.21 22.5951 120.169 22.4726 120.087 22.3909C120.006 22.3092 119.884 22.2275 119.761 22.2275C119.68 22.2275 119.476 22.2275 119.109 22.2275H118.416V23.3305H118.457ZM117.561 25.8226V21.4512H119.435C119.884 21.4512 120.25 21.4921 120.454 21.5738C120.658 21.6555 120.821 21.7781 120.943 21.9823C121.065 22.1866 121.147 22.4317 121.147 22.6768C121.147 23.0037 121.065 23.2896 120.862 23.4939C120.658 23.6982 120.373 23.8616 120.006 23.9025C120.21 24.025 120.373 24.1476 120.495 24.2701C120.617 24.3927 120.78 24.6378 120.984 24.9646L121.514 25.8226H120.454L119.802 24.8829C119.558 24.5561 119.435 24.311 119.354 24.2293C119.272 24.1476 119.191 24.0659 119.068 24.0659C118.987 24.025 118.824 24.025 118.62 24.025H118.457V25.8634H117.561V25.8226Z" fill="#0000BD"/>
<path d="M85.9349 54.297H90.5402L88.3394 50.0074H88.2172L85.9349 54.297ZM83.3266 59.4038H80.1069L86.2202 47.8422H90.2957L96.3682 59.4038H93.1485L91.6813 56.5031H84.8753L83.3266 59.4038ZM68.1657 47.8422H78.0284V50.13H70.8963V59.4038H68.1249V47.8422H68.1657ZM54.798 50.13V53.6842H59.4033C60.0962 53.6842 60.5445 53.5617 60.789 53.2757C61.0335 52.9897 61.1966 52.5403 61.1966 51.8867C61.1966 51.2739 61.0743 50.8245 60.8298 50.5794C60.5445 50.2934 60.0962 50.13 59.4033 50.13H54.798ZM54.798 55.972V59.3629H52.0267V47.8422H59.8924C61.3596 47.8422 62.3785 48.169 63.0305 48.7818C63.6419 49.3946 63.9679 50.4568 63.9679 51.8867C63.9679 53.3574 63.6419 54.4196 63.0305 55.0324C62.4192 55.6861 61.4003 55.972 59.9332 55.972H54.798ZM37.9662 52.5403H44.813V52.0501C44.813 51.1513 44.6908 50.6202 44.4055 50.3751C44.1202 50.13 43.5089 50.0483 42.5715 50.0483H39.0258C38.2107 50.0483 37.6809 50.1708 37.3141 50.4159C36.9881 50.6611 36.8251 51.1105 36.8251 51.6824H34.0537C34.0537 50.1708 34.4613 49.1086 35.2764 48.4958C35.9692 48.0056 37.0696 47.7196 38.5368 47.7196H43.1013C44.813 47.7196 45.9542 48.0056 46.6063 48.5775C47.2176 49.1495 47.5436 50.2525 47.5436 51.9275V55.3184C47.5436 56.8708 47.2583 57.933 46.647 58.5458C46.0357 59.1178 44.9353 59.4446 43.3459 59.4446H38.2515C36.5805 59.4446 35.4801 59.1586 34.9096 58.6275C34.339 58.0556 34.0945 56.9934 34.0945 55.4409H36.8658C36.8658 56.1355 37.0288 56.5848 37.3549 56.83C37.6809 57.0751 38.2515 57.1568 39.1073 57.1568H42.653C43.4681 57.1568 44.0387 57.0342 44.3647 56.7891C44.7315 56.5031 44.8946 55.9312 44.8946 55.0733V54.5422H37.9662V52.5403Z" fill="#2B2A29"/>
<path fill-rule="evenodd" clip-rule="evenodd" d="M37.2733 86.0001H42.2046H87.565C105.212 86.0001 119.843 72.6409 122.044 55.5641H103.378C101.503 61.8964 95.5937 66.5537 88.6654 66.5537H37.8031H33.157L29 86.0001H37.2733Z" fill="#E31E24"/>
</svg>

<svg width="152" height="104" fill="none" xmlns="http://www.w3.org/2000/svg"><path fill="#F6F6F6" d="M0 0h152v104H0z"/><path fill-rule="evenodd" clip-rule="evenodd" d="M37.273 21.125h50.292c17.647 0 32.278 13.318 34.479 30.436h-18.666c-1.875-6.333-7.784-10.99-14.713-10.99H33.157L29 21.125h8.273z" fill="#0000BD"/><path d="M116.623 20.961c.734-.694 1.671-1.144 2.69-1.144s1.956.45 2.69 1.144c.733.776 1.141 1.634 1.141 2.778a3.62 3.62 0 01-1.141 2.655c-.734.736-1.671 1.144-2.69 1.144s-1.956-.408-2.69-1.143c-.733-.695-1.141-1.635-1.059-2.656-.041-1.144.366-1.961 1.059-2.778zM119.354 19c-1.223 0-2.364.49-3.261 1.348-.896.94-1.426 2.043-1.426 3.391 0 1.226.489 2.329 1.426 3.227.897.94 2.038 1.349 3.261 1.349 1.304 0 2.404-.409 3.301-1.349.897-.898 1.345-1.96 1.345-3.227 0-1.348-.448-2.41-1.345-3.39-.897-.859-2.038-1.349-3.301-1.349z" fill="#0000BD"/><path d="M118.457 23.33h.652c.408 0 .693 0 .775-.04.122-.041.203-.082.244-.205a.768.768 0 00.082-.326c0-.164-.041-.286-.123-.368-.081-.082-.203-.163-.326-.163h-1.345v1.102h.041zm-.896 2.493V21.45h1.874c.449 0 .815.041 1.019.123a.95.95 0 01.489.408c.122.205.204.45.204.695 0 .327-.082.613-.285.817a1.414 1.414 0 01-.856.409c.204.122.367.245.489.367.122.123.285.368.489.695l.53.858h-1.06l-.652-.94c-.244-.327-.367-.572-.448-.654-.082-.081-.163-.163-.286-.163-.081-.041-.244-.041-.448-.041h-.163v1.838h-.896v-.04z" fill="#0000BD"/><path d="M85.935 54.297h4.605l-2.2-4.29h-.123l-2.282 4.29zm-2.608 5.107h-3.22l6.113-11.562h4.076l6.072 11.562h-3.22l-1.467-2.9h-6.806l-1.548 2.9zM68.166 47.842h9.862v2.288h-7.132v9.274h-2.771V47.842h.04zM54.798 50.13v3.554h4.605c.693 0 1.142-.122 1.386-.408s.408-.736.408-1.39c0-.612-.123-1.062-.367-1.307-.285-.286-.734-.449-1.427-.449h-4.605zm0 5.842v3.39h-2.771v-11.52h7.865c1.468 0 2.486.327 3.139.94.61.613.937 1.675.937 3.105 0 1.47-.326 2.533-.938 3.145-.61.654-1.63.94-3.097.94h-5.135zM37.966 52.54h6.847v-.49c0-.899-.122-1.43-.407-1.675-.286-.245-.897-.327-1.834-.327h-3.546c-.815 0-1.345.123-1.712.368-.326.245-.489.695-.489 1.266h-2.771c0-1.511.407-2.573 1.222-3.186.693-.49 1.794-.776 3.26-.776h4.565c1.712 0 2.853.286 3.505.858.612.572.938 1.674.938 3.35v3.39c0 1.553-.286 2.615-.897 3.228-.611.572-1.712.899-3.301.899h-5.094c-1.672 0-2.772-.286-3.342-.818-.571-.571-.816-1.634-.816-3.186h2.772c0 .694.163 1.144.489 1.389.326.245.897.327 1.752.327h3.546c.815 0 1.386-.123 1.712-.368.366-.286.53-.858.53-1.716v-.53h-6.929V52.54z" fill="#2B2A29"/><path fill-rule="evenodd" clip-rule="evenodd" d="M37.273 86h50.292c17.647 0 32.278-13.36 34.479-30.436h-18.666c-1.875 6.332-7.784 10.99-14.713 10.99H33.157L29 86h8.273z" fill="#E31E24"/></svg>
